!!!OTL: GOTT SEI MIT DIR MEIN SACHSENLAND
!!!ARE: Europa, Mitteleuropa, Deutschland, Sachsen
!!!SCT: B0022
!!!YEM: Copyright 1995, estate of Helmut Schaffrath.
**kern
*ICvox
*Ivox
*M4/4
*k[b-e-]
*B-:
{16f
8.b-
16cc
=1
4.dd
8dd
8.cc
16b-
8.cc
16dd
=2
2b-
4r}
{4dd
=3
8.cc
16ff
8.een
16dd
8.cc
16b-
8.g
16a
=4
2b-
8.r}
{16g
8.cc
16dd
=5
4.ee-
8ee-
8.dd
16cc
8.dd
16ee-
=6
2cc
8.r}
{16ee-
8.dd
16cc
=7
2b-
2dd
=8
2cc
4r}
{4f
=9
4.cc
8b-
8.a
16b-
8.cc
16dd
=10
2ee-
8.r}
{16f
8.f
16f
=11
4.dd
8cc
8.b-
16cc
8.dd
16ee-
=12
2cc
8.r}
{16f
8.d
16f
=13
2b-
8.r
16b-
8.f
16b-
=14
2dd
8.r}
{16f
8.b-
16dd
=15
4.ff
8dd
8.ff
16ee-
8.dd
16cc
=16
2b-
4r}
{4f
=17
4.cc
8b-
8.a
16b-
8.cc
16dd
=18
2ee-
8.r}
{16f
8.f
16f
=19
4.dd
8cc
8.b-
16cc
8.dd
16ee-
=20
2cc
8.r}
{16f
8.d
16f
=21
2b-
8.r
16b-
8.f
16b-
=22
2dd
8.r}
{16f
8.b-
16dd
=23
4.ff
8dd
8.ff
16ee-
8.dd
16cc
=24
2b-
8.r}
==
!!!AGN: politisch, national, Vaterlands - Lied
!!!ONB: ESAC (Essen Associative Code) Database: BOEHME
!!!AMT: simple quadruple
!!!AIN: vox
!!!EED: Helmut Schaffrath
!!!EEV: 1.0
*-
